source/img/heart.svg

<?xml version="1.0" encoding="UTF-8" standalone="no"?>
<!-- Generator: Adobe Illustrator 21.0.0, SVG Export Plug-In . SVG Version: 6.00 Build 0)  -->

<svg
   xmlns:dc="http://purl.org/dc/elements/1.1/"
   xmlns:cc="http://creativecommons.org/ns#"
   xmlns:rdf="http://www.w3.org/1999/02/22-rdf-syntax-ns#"
   xmlns:svg="http://www.w3.org/2000/svg"
   xmlns="http://www.w3.org/2000/svg"
   xmlns:sodipodi="http://sodipodi.sourceforge.net/DTD/sodipodi-0.dtd"
   xmlns:inkscape="http://www.inkscape.org/namespaces/inkscape"
   version="1.1"
   id="heart"
   x="0px"
   y="0px"
   viewBox="0 0 20 17"
   style="enable-background:new 0 0 20 17;"
   xml:space="preserve"
   sodipodi:docname="heart.svg"
   inkscape:version="0.92.1 r15371"><metadata
   id="metadata11"><rdf:RDF><cc:Work
       rdf:about=""><dc:format>image/svg+xml</dc:format><dc:type
         rdf:resource="http://purl.org/dc/dcmitype/StillImage" /></cc:Work></rdf:RDF></metadata><defs
   id="defs9" /><sodipodi:namedview
   pagecolor="#ffffff"
   bordercolor="#666666"
   borderopacity="1"
   objecttolerance="10"
   gridtolerance="10"
   guidetolerance="10"
   inkscape:pageopacity="0"
   inkscape:pageshadow="2"
   inkscape:window-width="1440"
   inkscape:window-height="838"
   id="namedview7"
   showgrid="false"
   inkscape:zoom="13.882353"
   inkscape:cx="10"
   inkscape:cy="8.5"
   inkscape:window-x="-8"
   inkscape:window-y="-8"
   inkscape:window-maximized="1"
   inkscape:current-layer="heart" />
  <style
   type="text/css"
   id="style2">
    .st0{fill:#f02323;}
  </style>
<path
   d="M18.5,1.5c-2-2-5.3-2-7.3,0L10,2.7L8.8,1.5c-2-2-5.3-2-7.3,0c-2,2-2,5.2,0,7.2l1.2,1.2L10,17l7.3-7.2l1.2-1.2   C20.5,6.7,20.5,3.5,18.5,1.5z M14.9,9.8L10,14.6L5.1,9.8L2.7,7.5C1.4,6.1,1.4,4,2.7,2.7c1.3-1.3,3.5-1.3,4.9,0L10,5.1l2.4-2.4   c1.3-1.3,3.5-1.3,4.9,0c1.3,1.3,1.3,3.5,0,4.8L14.9,9.8z"
   id="path4" />
<path
   style="fill:#d40000;fill-opacity:1;stroke-width:0.0720339"
   d="M 5.8753338,12.935754 C 3.6471841,10.763809 1.6204069,8.7643269 1.3713845,8.4924617 0.44959423,7.4861157 0.01126847,6.2441534 0.07756085,4.8265115 0.14147247,3.4597815 0.65371536,2.369904 1.6846928,1.4070847 3.2134753,-0.02062949 5.4292189,-0.36242752 7.3254937,0.53694141 8.0582189,0.88446001 8.3121175,1.0765677 9.2616525,2.0018988 L 10,2.7214258 10.738347,2.0018988 c 0.949535,-0.9253311 1.203434,-1.11743879 1.936159,-1.46495739 2.312778,-1.09690896 5.067783,-0.31054251 6.47958,1.84947929 0.506915,0.7755707 0.719195,1.4611327 0.764403,2.468664 0.05685,1.2668725 -0.220157,2.1963627 -0.933825,3.1334746 -0.35393,0.4647426 -8.873047,8.8961867 -8.9886921,8.8961867 -0.038201,0 -1.8924883,-1.777046 -4.1206381,-3.948992 z M 12.97779,11.754158 C 17.655209,7.183175 17.732638,7.1035898 17.945665,6.6478804 18.197473,6.109208 18.280022,5.7211789 18.282137,5.0662522 18.286899,3.5918669 17.441386,2.4110975 16.009015,1.8918124 15.431618,1.6824855 14.315573,1.6652092 13.745763,1.8567775 13.036412,2.095259 12.720874,2.3369648 11.351378,3.6909067 L 10.001485,5.025468 8.6501071,3.6918149 C 7.471214,2.5283849 7.2297729,2.3244444 6.7584746,2.0939945 5.3675534,1.4138778 3.8068005,1.631648 2.7332646,2.6556278 1.9851572,3.3692014 1.6783089,4.1631842 1.7330709,5.2436702 c 0.036484,0.719844 0.2007305,1.2445061 0.5588525,1.7851717 0.1172059,0.1769488 1.4861766,1.5569908 3.042157,3.0667591 1.5559804,1.50977 3.2337596,3.152523 3.7283977,3.650564 0.4946388,0.498041 0.9108096,0.90553 0.9248238,0.90553 0.014015,0 1.3597341,-1.303891 2.9904881,-2.897537 z"
   id="path4488"
   inkscape:connector-curvature="0" /></svg>

<svg xmlns="http://www.w3.org/2000/svg" version="1.1" id="heart" x="0" y="0" viewBox="0 0 20 17" xml:space="preserve"><style type="text/css" id="style2"/><path d="M18.5 1.5c-2-2-5.3-2-7.3 0L10 2.7 8.8 1.5c-2-2-5.3-2-7.3 0s-2 5.2 0 7.2l1.2 1.2L10 17l7.3-7.2 1.2-1.2c2-1.9 2-5.1 0-7.1zm-3.6 8.3L10 14.6 5.1 9.8 2.7 7.5C1.4 6.1 1.4 4 2.7 2.7c1.3-1.3 3.5-1.3 4.9 0L10 5.1l2.4-2.4c1.3-1.3 3.5-1.3 4.9 0 1.3 1.3 1.3 3.5 0 4.8l-2.4 2.3z" id="path4"/><path d="M5.875 12.936C3.647 10.764 1.62 8.764 1.371 8.492.45 7.486.011 6.244.078 4.827.14 3.46.654 2.37 1.685 1.407a5.05 5.05 0 015.64-.87c.733.347.987.54 1.937 1.465l.738.72.738-.72c.95-.925 1.204-1.118 1.937-1.465 2.312-1.097 5.067-.31 6.48 1.85.506.775.718 1.46.763 2.468.057 1.267-.22 2.196-.933 3.134-.354.464-8.873 8.896-8.989 8.896-.038 0-1.893-1.777-4.12-3.95zm7.103-1.182c4.677-4.57 4.755-4.65 4.968-5.106.251-.539.334-.927.336-1.582.005-1.474-.84-2.655-2.273-3.174-.577-.21-1.693-.227-2.263-.035-.71.238-1.025.48-2.395 1.834l-1.35 1.334-1.35-1.333C7.47 2.528 7.23 2.324 6.757 2.094c-1.39-.68-2.951-.462-4.025.562-.748.713-1.055 1.507-1 2.588.037.72.2 1.244.559 1.785.117.177 1.486 1.557 3.042 3.067a442.074 442.074 0 013.728 3.65c.495.498.911.906.925.906.014 0 1.36-1.304 2.99-2.898z" id="path4488" fill="#d40000" fill-opacity="1" stroke-width=".072"/></svg>
